static/logos/coinbase-wordmark-color.svg

<svg width="100" height="18" viewBox="0 0 100 18" fill="none" xmlns="http://www.w3.org/2000/svg">
<g clip-path="url(#clip0_1_3207)">
<path d="M20.1419 4.97705C16.5165 4.97705 13.6837 7.72919 13.6837 11.4135C13.6837 15.0978 16.4449 17.8264 20.1419 17.8264C23.8389 17.8264 26.6481 15.0507 26.6481 11.3899C26.6481 7.75273 23.8869 4.97705 20.1419 4.97705ZM20.1664 15.1712C18.1018 15.1712 16.5889 13.5677 16.5889 11.4144C16.5889 9.2366 18.0773 7.63407 20.1419 7.63407C22.2309 7.63407 23.7429 9.26106 23.7429 11.4144C23.7429 13.5677 22.2309 15.1712 20.1664 15.1712ZM27.4399 7.77719H29.2407V17.5881H32.1215V5.21621H27.4399V7.77719ZM6.43373 7.63315C7.9466 7.63315 9.14691 8.56624 9.60259 9.95407H12.6519C12.0993 6.98724 9.65061 4.97705 6.45819 4.97705C2.83276 4.97705 0 7.72919 0 11.4144C0 15.0996 2.7612 17.8273 6.45819 17.8273C9.57903 17.8273 12.0757 15.8171 12.6283 12.8258H9.60259C9.17047 14.2136 7.97014 15.1712 6.4573 15.1712C4.36827 15.1712 2.90432 13.5677 2.90432 11.4144C2.90524 9.2366 4.34563 7.63315 6.43373 7.63315ZM82.1763 10.2177L80.0638 9.90696C79.0557 9.76384 78.3354 9.42866 78.3354 8.63872C78.3354 7.77719 79.2722 7.34688 80.544 7.34688C81.9365 7.34688 82.8251 7.94479 83.017 8.92588H85.802C85.4894 6.43735 83.5688 4.97794 80.6164 4.97794C77.5671 4.97794 75.5507 6.5334 75.5507 8.73474C75.5507 10.8401 76.8713 12.0612 79.5357 12.4435L81.6482 12.7542C82.6811 12.8974 83.2571 13.305 83.2571 14.0705C83.2571 15.0516 82.249 15.4584 80.8565 15.4584C79.1515 15.4584 78.1914 14.7644 78.0474 13.7118H75.2145C75.4791 16.1287 77.3752 17.8273 80.832 17.8273C83.9774 17.8273 86.0655 16.3914 86.0655 13.9265C86.0655 11.7251 84.5535 10.5764 82.1763 10.2177ZM30.6811 0.119579C29.6248 0.119579 28.8323 0.88507 28.8323 1.93773C28.8323 2.99039 29.624 3.75588 30.6811 3.75588C31.7373 3.75588 32.5301 2.99039 32.5301 1.93773C32.5301 0.88507 31.7373 0.119579 30.6811 0.119579ZM72.9579 9.4522C72.9579 6.77253 71.3256 4.97794 67.8685 4.97794C64.6036 4.97794 62.7791 6.62941 62.4187 9.16593H65.2758C65.4198 8.18485 66.188 7.37134 67.8206 7.37134C69.2855 7.37134 70.0056 8.01724 70.0056 8.80721C70.0056 9.83632 68.6847 10.099 67.0524 10.2666C64.8437 10.5058 62.107 11.2713 62.107 14.143C62.107 16.3688 63.7638 17.8037 66.4047 17.8037C68.4691 17.8037 69.7655 16.9422 70.4142 15.5779C70.5103 16.7982 71.4226 17.5881 72.6953 17.5881H74.3758V15.028H72.9588V9.4522H72.9579ZM70.1251 12.5631C70.1251 14.2145 68.6847 15.4348 66.9318 15.4348C65.8513 15.4348 64.939 14.98 64.939 14.0234C64.939 12.8031 66.4036 12.468 67.7482 12.3248C69.0446 12.2053 69.7646 11.9181 70.1251 11.3673V12.5631ZM54.8326 4.97705C53.2237 4.97705 51.8794 5.64741 50.9192 6.77164V0H48.0384V17.5881H50.871V15.9611C51.8312 17.1334 53.2003 17.8273 54.8326 17.8273C58.2894 17.8273 60.9067 15.0996 60.9067 11.4144C60.9067 7.72919 58.2415 4.97705 54.8326 4.97705ZM54.4006 15.1712C52.3359 15.1712 50.8231 13.5677 50.8231 11.4144C50.8231 9.26106 52.3596 7.63407 54.424 7.63407C56.5131 7.63407 57.9769 9.23752 57.9769 11.4144C57.9769 13.5677 56.4649 15.1712 54.4006 15.1712ZM41.1479 4.97705C39.2755 4.97705 38.0507 5.74253 37.3306 6.81964V5.21621H34.4733V17.5872H37.354V10.8636C37.354 8.97298 38.5543 7.63315 40.3309 7.63315C41.9877 7.63315 43.0195 8.8054 43.0195 10.5049V17.5881H45.9003V10.2902C45.9014 7.17838 44.2933 4.97705 41.1479 4.97705ZM99.7981 11.0077C99.7981 7.46646 97.2053 4.97794 93.724 4.97794C90.027 4.97794 87.3139 7.75365 87.3139 11.4144C87.3139 15.2672 90.2189 17.8273 93.7721 17.8273C96.7733 17.8273 99.1259 16.0563 99.7256 13.5442H96.7242C96.2922 14.6448 95.2359 15.2672 93.8192 15.2672C91.9702 15.2672 90.5777 14.1185 90.266 12.1083H99.7972V11.0077H99.7981ZM90.4345 10.0501C90.8914 8.32707 92.1875 7.49003 93.676 7.49003C95.3084 7.49003 96.5568 8.42309 96.8449 10.0501H90.4345Z" fill="#0052FF"/>
</g>
<defs>
<clipPath id="clip0_1_3207">
<rect width="100" height="17.8273" fill="white"/>
</clipPath>
</defs>
</svg>

<svg xmlns="http://www.w3.org/2000/svg" width="355.556" height="64" fill="none" viewBox="0 0 100 18"><g clip-path="url(#a)"><path fill="#0052FF" d="M20.142 4.977c-3.625 0-6.458 2.752-6.458 6.437 0 3.684 2.76 6.412 6.458 6.412 3.697 0 6.506-2.775 6.506-6.436 0-3.637-2.761-6.413-6.506-6.413Zm.024 10.194c-2.064 0-3.577-1.603-3.577-3.757 0-2.177 1.488-3.78 3.553-3.78 2.089 0 3.6 1.627 3.6 3.78 0 2.154-1.511 3.757-3.576 3.757Zm7.274-7.394h1.8v9.811h2.881V5.216H27.44v2.561ZM6.434 7.633c1.513 0 2.713.933 3.169 2.321h3.049c-.553-2.967-3.001-4.977-6.194-4.977C2.833 4.977 0 7.729 0 11.414c0 3.686 2.761 6.413 6.458 6.413 3.121 0 5.618-2.01 6.17-5.001H9.603C9.17 14.214 7.97 15.17 6.457 15.17c-2.089 0-3.553-1.603-3.553-3.757.001-2.177 1.442-3.78 3.53-3.78Zm75.742 2.585-2.112-.311c-1.008-.143-1.729-.478-1.729-1.268 0-.862.937-1.292 2.209-1.292 1.392 0 2.281.598 2.473 1.579h2.785c-.313-2.489-2.233-3.948-5.186-3.948-3.049 0-5.065 1.555-5.065 3.757 0 2.105 1.32 3.326 3.985 3.709l2.112.31c1.033.143 1.61.551 1.61 1.316 0 .982-1.009 1.388-2.401 1.388-1.706 0-2.666-.694-2.81-1.746h-2.832c.264 2.417 2.16 4.115 5.617 4.115 3.145 0 5.234-1.436 5.234-3.9 0-2.202-1.513-3.35-3.89-3.71ZM30.681.12c-1.056 0-1.849.765-1.849 1.818 0 1.052.792 1.818 1.85 1.818 1.055 0 1.848-.766 1.848-1.818C32.53.885 31.737.12 30.681.12Zm42.277 9.332c0-2.68-1.632-4.474-5.09-4.474-3.264 0-5.089 1.651-5.45 4.188h2.858c.144-.981.912-1.795 2.545-1.795 1.465 0 2.185.646 2.185 1.436 0 1.03-1.321 1.292-2.954 1.46-2.208.239-4.945 1.004-4.945 3.876 0 2.226 1.657 3.66 4.298 3.66 2.064 0 3.36-.86 4.01-2.225.095 1.22 1.008 2.01 2.28 2.01h1.68v-2.56H72.96V9.452h-.001Zm-2.833 3.111c0 1.651-1.44 2.872-3.193 2.872-1.08 0-1.993-.455-1.993-1.412 0-1.22 1.465-1.555 2.81-1.698 1.296-.12 2.016-.407 2.376-.958v1.196ZM54.833 4.977c-1.61 0-2.954.67-3.914 1.795V0h-2.88v17.588h2.832v-1.627c.96 1.172 2.33 1.866 3.962 1.866 3.456 0 6.074-2.727 6.074-6.413 0-3.685-2.665-6.437-6.074-6.437ZM54.4 15.171c-2.065 0-3.578-1.603-3.578-3.757 0-2.153 1.537-3.78 3.601-3.78 2.09 0 3.553 1.604 3.553 3.78 0 2.154-1.512 3.757-3.576 3.757ZM41.148 4.977c-1.873 0-3.097.766-3.817 1.843V5.216h-2.858v12.371h2.881v-6.723c0-1.891 1.2-3.23 2.977-3.23 1.657 0 2.688 1.171 2.688 2.87v7.084H45.9V10.29c.001-3.112-1.607-5.313-4.752-5.313Zm58.65 6.03c0-3.54-2.593-6.03-6.074-6.03-3.697 0-6.41 2.777-6.41 6.437 0 3.853 2.905 6.413 6.458 6.413 3.001 0 5.354-1.77 5.954-4.283h-3.002c-.432 1.1-1.488 1.723-2.905 1.723-1.849 0-3.241-1.149-3.553-3.159h9.531v-1.1h.001Zm-9.364-.957c.457-1.723 1.754-2.56 3.242-2.56 1.632 0 2.88.933 3.169 2.56h-6.41Z"/></g><defs><clipPath id="a"><path fill="#fff" d="M0 0h100v17.827H0z"/></clipPath></defs></svg>
